X: 1
T: THE DUBLIN BOY'S -- JIG
B: Ryan's Mammoth Collection of Fiddle Tunes
R: jig
M: 9/8
L: 1/8
Z: Contributed 20010701015051 by John Chambers jmchambers:rcn.net
K: EM
 (vG2.A) BGE BGE | (uF2.G) AFD AFD | (vG2.A) BGE BGE | dcB AGF (E2D) \
| (G2.A) BGE BGE | (uF2.G) AFD AFD |  (G2.A) BGE BGE | dcB AGF E2z |]
  (ve2.f) (g2.a) bge | (ud2.e) "^SEGUE"f2g afd | ve2f g2a bge | dcB AGF (E2D) \
| e2f g2a bge | d2e f2g afd | e2f g2a bge | dcB AGF E2z "^fermat:a"[|]|]
